!!!!SEGMENT: pl-sa--l-1643--035_anonim--que-est-ista-que-ascendit.krn
!!!cenid: 16xx:1390
!!!COM: Anonim
!!!COM-rismID: pe30004985
!!!CDT:
!!!CNT:
!!!OTL: Que est ista que ascendit
!!!PDT:
!!!AGN: Sacred
!!!SMS-siglum: PL-SA
!!!SMS-shelfmark: L 1643
!!!SMS-shelfwork: 031 W
!!!SMS-variant:
!!!SMS-altvar:
!!!NIFC-rismSourceID: 1001064663
!!!NIFC-rismChildID: 1001064663
!!!NIFC-islandoraID:
!!!URL-pdf-islandora:
!!!URL-scan:
!!!ONB-nifc: UWAGA: 8 ksiąg. Primi chori: 1mus Cantus (59-60), C 2dus (59-60), C 3tius (58-59), Bassus (55-56); Secondi chori: Primus Cantus (57-58), C 2dus (58-59), Altus (58-59), Bassus (58-59). UWAGA: metrum 2/2 i 3/2. Nie dodawać pustych linii, chyba że w rękopisie pojawiają się dodatkowe oznaczenia dotyczące pełnej obsady (a 4, a 8 itp.)
!!!AIN: 8 empty
!!!key:
**kern	**text	**kern	**text	**kern	**text	**kern	**text	**kern	**text	**kern	**text	**kern	**text	**kern	**text
*part8	*part8	*part7	*part7	*part6	*part6	*part5	*part5	*part4	*part4	*part3	*part3	*part2	*part2	*part1	*part1
*staff8	*staff8	*staff7	*staff7	*staff6	*staff6	*staff5	*staff5	*staff4	*staff4	*staff3	*staff3	*staff2	*staff2	*staff1	*staff1
*group2	*	*group2	*	*group2	*	*group2	*	*group1	*	*group1	*	*group1	*	*group1	*
*Iempty	*	*Iempty	*	*Iempty	*	*Iempty	*	*Iempty	*	*Iempty	*	*Iempty	*	*Iempty	*
*I"Baſsus 2di Chori	*	*I"Altus secundi Chori.	*	*I"Cantus 2dus Secundi Chori.	*	*I"Primus Cantus 2di Chori	*	*I"Bassus Primi Chori.	*	*I"Cantus 3tius Primi Chori	*	*I"Cantus 2dus Primi Chori.	*	*I"Im(us) Cantus Primi Chori	*
*I'Coro 2 B	*	*I'Coro 2 A	*	*I'Coro 2 S 2	*	*I'Coro 2 S 1	*	*I'Coro 1 B	*	*I'Coro 1 S 3	*	*I'Coro 1 S 2	*	*I'Coro 1 S 1	*
*clefC3	*	*clefC2	*	*clefC1	*	*clefG2	*	*clefC3	*	*clefC2	*	*clefC1	*	*clefG2	*
*k[b-]	*	*k[b-]	*	*k[b-]	*	*k[b-]	*	*k[b-]	*	*k[b-]	*	*k[b-]	*	*k[b-]	*
*g:	*	*g:	*	*g:	*	*g:	*	*g:	*	*g:	*	*g:	*	*g:	*
*M2/2	*	*M2/2	*	*M2/2	*	*M2/2	*	*M2/2	*	*M2/2	*	*M2/2	*	*M2/2	*
*met(C|)	*	*met(C|)	*	*met(C|)	*	*met(C|)	*	*met(C|)	*	*met(C|)	*	*met(C|)	*	*met(C|)	*
=1-	=1-	=1-	=1-	=1-	=1-	=1-	=1-	=1-	=1-	=1-	=1-	=1-	=1-	=1-	=1-
!LO:TX:a:t=De Aſſumptio\nne B.M.V.	!	!LO:TX:a:t=De Aſſumpti\none BMV.	!	!LO:TX:a:t=De Aſſu(m)\nptione\nBMV.	!	!LO:TX:a:t=De Aſſumptione \nB.M.V. A 8 V.	!	!LO:TX:a:t=Ad Be\nnedict(us)	!	!LO:TX:a:t=De Aſſumptione B.M.V.\nAd Benedictus.	!	!LO:TX:a:t=Ad Bene\ndictus.	!	!LO:TX:a:t=De Aſſumptio\nne B.V.M.\nAd Laudes Benedict(us)	!
!	!	!LO:TX:a:t=Ad Bene\ndictus	!	!	!	!LO:TX:a:t=Ad Be\nnedict(us)	!	!	!	!	!	!	!	!	!
00r	.	00r	.	00r	.	00r	.	00r	.	0r	.	0r	.	2r	.
.	.	.	.	.	.	.	.	.	.	.	.	.	.	1dd\	Quae
=2-	=2-	=2-	=2-	=2-	=2-	=2-	=2-	=2-	=2-	=2-	=2-	=2-	=2-	=2-	=2-
.	.	.	.	.	.	.	.	.	.	.	.	.	.	2a/	est
=3-	=3-	=3-	=3-	=3-	=3-	=3-	=3-	=3-	=3-	=3-	=3-	=3-	=3-	=3-	=3-
.	.	.	.	.	.	.	.	.	.	1g	Quae	2r	.	1b-	i-
.	.	.	.	.	.	.	.	.	.	.	.	1dd\	Quae	.	.
=4-	=4-	=4-	=4-	=4-	=4-	=4-	=4-	=4-	=4-	=4-	=4-	=4-	=4-	=4-	=4-
.	.	.	.	.	.	.	.	.	.	1d	eſt	.	.	1a	-sta
.	.	.	.	.	.	.	.	.	.	.	.	2a\	est	.	.
=5-	=5-	=5-	=5-	=5-	=5-	=5-	=5-	=5-	=5-	=5-	=5-	=5-	=5-	=5-	=5-
00r	.	00r	.	00r	.	00r	.	0r	.	1e-X	i-	1.b-	i-	2r	.
.	.	.	.	.	.	.	.	.	.	.	.	.	.	1gg\	quae
=6-	=6-	=6-	=6-	=6-	=6-	=6-	=6-	=6-	=6-	=6-	=6-	=6-	=6-	=6-	=6-
!	!	!	!	!	!	!	!	!	!	!LO:TX:t=P:global:problem=oddech jako rozdzielacz słów	!	!	!	!	!
.	.	.	.	.	.	.	.	.	.	2d,</	ſta	.	.	.	.
.	.	.	.	.	.	.	.	.	.	2a\	quae	2a\	-ſta	2dd\	est
=7-	=7-	=7-	=7-	=7-	=7-	=7-	=7-	=7-	=7-	=7-	=7-	=7-	=7-	=7-	=7-
.	.	.	.	.	.	.	.	2r	.	1.g	eſt	2r	.	1ee-X	i-
.	.	.	.	.	.	.	.	1g\	Quae	.	.	1b-\	quae	.	.
=8-	=8-	=8-	=8-	=8-	=8-	=8-	=8-	=8-	=8-	=8-	=8-	=8-	=8-	=8-	=8-
.	.	.	.	.	.	.	.	.	.	.	.	.	.	1dd	-sta
!	!	!	!	!	!	!	!	!	!	!LO:TX:b:t=P:problem=♯ below	!	!	!	!	!
.	.	.	.	.	.	.	.	2d\	eſt	2f#X\	i-	2a\	est	.	.
=9-	=9-	=9-	=9-	=9-	=9-	=9-	=9-	=9-	=9-	=9-	=9-	=9-	=9-	=9-	=9-
00r	.	00r	.	00r	.	0r	.	1e-X	i-	1g,<	-sta,	1g	i-	2r	.
.	.	.	.	.	.	.	.	.	.	.	.	.	.	1gg\	quae
=10-	=10-	=10-	=10-	=10-	=10-	=10-	=10-	=10-	=10-	=10-	=10-	=10-	=10-	=10-	=10-
!	!	!	!	!	!	!	!	!	!	!LO:TX:b:t=P:problem=♯ below	!	!	!	!	!
.	.	.	.	.	.	.	.	2d\	-ſta	2f#X\	quae	2a\	-ſta	.	.
.	.	.	.	.	.	.	.	4G/	quae	2g\	eſt	4b-\	quae	2dd\	est
.	.	.	.	.	.	.	.	4G/	est	.	.	4b-\	eſt	.	.
=11-	=11-	=11-	=11-	=11-	=11-	=11-	=11-	=11-	=11-	=11-	=11-	=11-	=11-	=11-	=11-
.	.	.	.	.	.	1r	.	1c	i-	1g	i-	1cc	i-	1ee-X	i-
=12-	=12-	=12-	=12-	=12-	=12-	=12-	=12-	=12-	=12-	=12-	=12-	=12-	=12-	=12-	=12-
*	*	*	*	*	*	*	*	*	*	*	*	*	*	*custos:gg	*
.	.	.	.	.	.	2r	.	1G	-ſta	1g,<	-ſta	1b-	-ſta	1dd	-sta.
.	.	.	.	.	.	1dd\	Quae	.	.	.	.	.	.	.	.
!	!	!	!	!	!	!	!	!	!	!	!	!	!	!LO:LB:g=original	!
=13-	=13-	=13-	=13-	=13-	=13-	=13-	=13-	=13-	=13-	=13-	=13-	=13-	=13-	=13-	=13-
00r	.	1r	.	1r	.	.	.	2G/	quae	2g\	quae	2b-\	quae	0r	.
!	!	!	!	!	!	!	!	!	!	!LO:TX:b:t=P:problem=♯ below	!	!	!	!	!
.	.	.	.	.	.	2a/	est	2d\	eſt	2f#X\	eſt	2a\	eſt	.	.
=14-	=14-	=14-	=14-	=14-	=14-	=14-	=14-	=14-	=14-	=14-	=14-	=14-	=14-	=14-	=14-
.	.	1g	Quae	2r	.	1b-	i-	4G/	i-	1g	i-	1g	i-	.	.
.	.	.	.	.	.	.	.	4A/	.	.	.	.	.	.	.
.	.	.	.	1dd\	Quae	.	.	4B-/	.	.	.	.	.	.	.
.	.	.	.	.	.	.	.	4c/	.	.	.	.	.	.	.
=15-	=15-	=15-	=15-	=15-	=15-	=15-	=15-	=15-	=15-	=15-	=15-	=15-	=15-	=15-	=15-
*	*	*	*	*	*	*	*	*	*	*	*	*custos:dd	*	*	*
.	.	1.d	est	.	.	1a	-sta	2d\	-ſta	2fny,<\	-ſta	1a	-ſta	1r	.
.	.	.	.	2a\	est	.	.	1d\	quae	2a\	quae	.	.	.	.
!	!	!	!	!	!	!	!	!	!	!	!	!LO:LB:g=original	!	!	!
=16-	=16-	=16-	=16-	=16-	=16-	=16-	=16-	=16-	=16-	=16-	=16-	=16-	=16-	=16-	=16-
*	*	*	*	*	*	*	*	*	*	*custos:g	*	*	*	*	*
.	.	.	.	1.b-	i-	1r	.	.	.	2a\	est	0r	.	2r	.
!	!	!	!	!	!	!	!	!	!	!LO:LB:g=original	!	!	!	!	!
.	.	2e-X/	i-	.	.	.	.	2g\	est	2g\	i-	.	.	1gg\	quae
=17-	=17-	=17-	=17-	=17-	=17-	=17-	=17-	=17-	=17-	=17-	=17-	=17-	=17-	=17-	=17-
1r	.	2d/	-ſta	.	.	2dd\	quae	1d	i-	1a	-sta	.	.	.	.
.	.	2a\	quae	2a\	-sta	2a/	est	.	.	.	.	.	.	2dd\	eſt
=18-	=18-	=18-	=18-	=18-	=18-	=18-	=18-	=18-	=18-	=18-	=18-	=18-	=18-	=18-	=18-
*	*	*	*	*	*	*	*	*custos:d	*	*	*	*	*	*	*
2r	.	1.g	est	2r	.	4g/	i-	1G	-ſta	1r	.	2r	.	1ee-X	i-
.	.	.	.	.	.	4a/	.	.	.	.	.	.	.	.	.
1g\	Quae	.	.	1g\	quae	1b-\	.	.	.	.	.	2dd\	quae	.	.
!	!	!	!	!	!	!	!	!LO:LB:g=original	!	!	!	!	!	!	!
=19-	=19-	=19-	=19-	=19-	=19-	=19-	=19-	=19-	=19-	=19-	=19-	=19-	=19-	=19-	=19-
.	.	.	.	.	.	.	.	0r	.	2g\	quae	4b-\	eſt	1dd	-sta
.	.	.	.	.	.	.	.	.	.	.	.	4cc\	.	.	.
!	!	!LO:TX:b:t=P:problem=♯ below	!	!	!	!	!	!	!	!LO:TX:b:t=P:problem=♯ below	!	!	!	!	!
2d\	est	2f#X\	i-	2a\	eſt	2a/	-sta	.	.	2f#X\	est	1dd\	.	.	.
=20-	=20-	=20-	=20-	=20-	=20-	=20-	=20-	=20-	=20-	=20-	=20-	=20-	=20-	=20-	=20-
1e-X	i-	1g	.	1g	i-	1r	.	.	.	1g	i-	.	.	1r	.
.	.	.	.	.	.	.	.	.	.	.	.	2cc\	i-	.	.
=21-	=21-	=21-	=21-	=21-	=21-	=21-	=21-	=21-	=21-	=21-	=21-	=21-	=21-	=21-	=21-
!LO:TX:t=P:global:problem=oddech jako rozdzielacz słów	!	!LO:TX:b:t=P:problem=♯ below	!	!	!	!	!	!	!	!LO:TX:b:t=P:problem=♯ below	!	!LO:TX:t=P:global:problem=oddech jako rozdzielacz słów	!	!	!
2d,<\	-sta	2f#X\	-sta	2a\	-ſta	2dd\	quae	2d\	quae	2f#X\	-sta	2dd,<\	-ſta	2dd\	quae
!	!	!LO:SIC:v:s=2g\	!	!	!	!	!	!	!	!	!	!	!	!	!
!	!	!LO:TX:b:t=P:problem=♯ below	!	!	!	!	!	!	!	!	!	!	!	!	!
4g\	quae	2f#X\	quae	4b-\	quae	2dd\	est	2G/	eſt	4g\	quae	4b-\	quae	2dd\	est
4g\	est	.	.	4b-\	est	.	.	.	.	4g\	eſt	4b-\	eſt	.	.
=22-	=22-	=22-	=22-	=22-	=22-	=22-	=22-	=22-	=22-	=22-	=22-	=22-	=22-	=22-	=22-
4c/	i-	1.g	est	2.g/	i-	1cc	i-	1c	i-	1g	i-	1cc	i-	1ee-X	i-
4d\	.	.	.	.	.	.	.	.	.	.	.	.	.	.	.
4eny\	.	.	.	.	.	.	.	.	.	.	.	.	.	.	.
4f\	.	.	.	4a\	.	.	.	.	.	.	.	.	.	.	.
=23-	=23-	=23-	=23-	=23-	=23-	=23-	=23-	=23-	=23-	=23-	=23-	=23-	=23-	=23-	=23-
*	*	*	*	*	*	*custos:g	*	*	*	*	*	*	*	*	*
!	!	!	!	!	!	!	!	!	!	!	!	!LO:TX:b:t=P:problem=♯ below	!	!	!
!	!	!	!	!	!	!	!	!	!	!	!	!LO:N:acc=#	!	!	!
!	!	!	!	!LO:TX:t=P:global:problem=oddech jako rozdzielacz słów	!	!	!	!LO:TX:t=P:global:problem=oddech jako rozdzielacz słów	!	!	!	!LO:SIC:v:s=2b-\	!	!	!
1g	-sta	.	.	1b-,<	-ſta	0dd	-sta	1G,<	-ſta	1g,<	-ſta	2b\	-ſta	1dd	-sta
.	.	2d/	i-	.	.	.	.	.	.	.	.	4b-y\	quae	.	.
.	.	.	.	.	.	.	.	.	.	.	.	4b-\	eſt	.	.
=24-	=24-	=24-	=24-	=24-	=24-	=24-	=24-	=24-	=24-	=24-	=24-	=24-	=24-	=24-	=24-
*	*	*custos:d	*	*	*	*	*	*	*	*	*	*	*	*	*
1g	quae	1d	-sta	1.g	quae	.	.	1G	quae	1g	quae	2.b-\	i-	2g/	quae
.	.	.	.	.	.	.	.	.	.	.	.	.	.	2a/	a-
.	.	.	.	.	.	.	.	.	.	.	.	4cc\	.	.	.
!	!	!LO:LB:g=original	!	!	!	!LO:PB:g=original	!	!	!	!	!	!	!	!	!
=25-	=25-	=25-	=25-	=25-	=25-	=25-	=25-	=25-	=25-	=25-	=25-	=25-	=25-	=25-	=25-
1g	a-	1.d	quae	.	.	1.g	quae	1G	a-	1d	a-	1dd,<	-ſta	2b-/	-ſcen-
*	*	*	*	*custos:b-	*	*	*	*	*	*	*	*	*	*	*
.	.	.	.	2a\	a[[ſ]]-	.	.	.	.	.	.	.	.	2cc\	-dit
!	!	!	!	!LO:LB:g=original	!	!	!	!	!	!	!	!	!	!	!
=26-	=26-	=26-	=26-	=26-	=26-	=26-	=26-	=26-	=26-	=26-	=26-	=26-	=26-	=26-	=26-
1G	-ſcen-	.	.	2b-\	-ſcen-	.	.	1g	-ſcen-	1d	-ſcen-	1.g	quae	2dd\	Si-
.	.	2g\	a-	2cc\	-dit	2a/	a-	.	.	.	.	.	.	2cc\	-cut
=27-	=27-	=27-	=27-	=27-	=27-	=27-	=27-	=27-	=27-	=27-	=27-	=27-	=27-	=27-	=27-
2G/	-dit	1g	-ſcen-	2dd\	Si-	2b-/	-ſcen-	1g	-dit.	1g,<	-dit	.	.	1gg	au-
*custos:g	*	*	*	*	*	*	*	*	*	*	*	*	*	*	*
2G/	a[[ſ]]-	.	.	2cc\	-cut	2cc\	-dit	.	.	.	.	2a\	a-	.	.
!LO:LB:g=original	!	!	!	!	!	!	!	!	!	!	!	!	!	!	!
=28-	=28-	=28-	=28-	=28-	=28-	=28-	=28-	=28-	=28-	=28-	=28-	=28-	=28-	=28-	=28-
1g	-ſcen-	1g	-dit	2b-\	au-	2dd\	Si-	1.G	quae	2g\	quae	2b-\	-ſcen-	1gg	-ro-
.	.	.	.	2ee-X\	-ro-	2cc\	-cut	.	.	2a\	a-	2cc\	-dit	.	.
=29-	=29-	=29-	=29-	=29-	=29-	=29-	=29-	=29-	=29-	=29-	=29-	=29-	=29-	=29-	=29-
2g,<\	-dit	2d/	Si-	2dd\	-ta	2b-/	au-	.	.	2b-\	-ſcen-	2dd\	Si-	4gg\	-ra
.	.	.	.	.	.	.	.	.	.	.	.	.	.	4bb-\	con-
2c/	a-	2a\	-cut	2a\	con-	2a/	-ro-	2A/	a-	2cc\	-dit	2cc\	-cut	2aa\	-ſur-
=30-	=30-	=30-	=30-	=30-	=30-	=30-	=30-	=30-	=30-	=30-	=30-	=30-	=30-	=30-	=30-
*	*	*	*	*	*	*	*	*	*	*	*	*	*	*custos:ff	*
2g\	-ſcen-	2d/	au-	2dd\	-ſur-	2dd\	-ra	2B-/	-ſcen-	2dd\	Si-	2b-\	au-	1gg	-gens
*	*	*	*	*	*	*	*	*	*	*	*	*custos:dd	*	*	*
2g\	-dit	2g\	-ro-	2g/	-gens	2ee-X\	con-	2c/	-dit	2cc\	-cut	2ee-X\	-ro-	.	.
!	!	!	!	!	!	!	!	!	!	!	!	!LO:LB:g=original	!	!LO:LB:g=original	!
=31-	=31-	=31-	=31-	=31-	=31-	=31-	=31-	=31-	=31-	=31-	=31-	=31-	=31-	=31-	=31-
2d\	Si-	2d/	-ra	2a\	Si-	2ff\	-ſur-	2d\	Si-	2b-\	au-	2dd\	-ra	2.ff\	au-
*	*	*	*	*	*	*	*	*	*	*custos:dd	*	*	*	*	*
!	!	!	!	!	!	!LO:TX:t=P:global:problem=oddech jako rozdzielacz słów	!	!	!	!	!	!	!	!	!
2g\	-cut	2r	.	4a\	-cut	2gg,<\	-gens	2c/	-cut	2ee-X\	-ro-	2g/	con-	.	.
.	.	.	.	4cc\	au-	.	.	.	.	.	.	.	.	4cc\	.
!	!	!	!	!	!	!	!	!	!	!LO:LB:g=original	!	!LO:LB:g=original	!	!	!
=32-	=32-	=32-	=32-	=32-	=32-	=32-	=32-	=32-	=32-	=32-	=32-	=32-	=32-	=32-	=32-
2d\	au-	2d/	au-	4f/	-ro-	4dd\	au-	2B-/	au-	2dd\	-ra	2dd\	-ſur-	4ff\	-ro-
.	.	.	.	4g/	.	4ff\	-ro-	.	.	.	.	.	.	4dd\	-ra
2A/	-ro-	2a\	-ro-	2a\	-ta	2cc\	-ra	2A/	-ro-	2cc\	con-	2a\	-gens	4eeny\	con-
.	.	.	.	.	.	.	.	.	.	.	.	.	.	4ff\	-ſur-
=33-	=33-	=33-	=33-	=33-	=33-	=33-	=33-	=33-	=33-	=33-	=33-	=33-	=33-	=33-	=33-
!	!	!	!	!	!	!	!	!	!	!	!	!	!	!LO:TX:t=P:global:problem=oddech jako rozdzielacz słów	!
2d\	-ra	4d/	-ra	2.dd\	con-	2b-/	con-	2G,</	-ra	1dd	-ſur-	2.b-\	con-	0gg,<	-gens
.	.	4d/	con-	.	.	.	.	.	.	.	.	.	.	.	.
2d\	con-	2d/	-ſur-	.	.	2dd\	-ſur-	2G/	con-	.	.	.	.	.	.
.	.	.	.	4dd\	-ſur-	.	.	.	.	.	.	4cc\	-ſur-	.	.
=34-	=34-	=34-	=34-	=34-	=34-	=34-	=34-	=34-	=34-	=34-	=34-	=34-	=34-	=34-	=34-
!	!	!	!	!LO:N:acc=#	!	!	!	!	!	!	!	!	!	!	!
!	!	!	!	!LO:TX:b:t=P:problem=♯ below	!	!	!	!	!	!	!	!	!	!	!
2G/	-ſur-	1d	-gens	1bn	-gens.	1dd	-gens	2g\	-ſur-	1g,<	-gens	1dd	-gens.	.	.
*	*	*	*	*	*	*	*	*custos:G	*	*	*	*	*	*	*
2G/	-gens	.	.	.	.	.	.	2g\	-gens	.	.	.	.	.	.
!	!	!	!	!	!	!	!	!LO:LB:g=original	!	!	!	!	!	!	!
=35-	=35-	=35-	=35-	=35-	=35-	=35-	=35-	=35-	=35-	=35-	=35-	=35-	=35-	=35-	=35-
0r	.	0r	.	0r	.	0r	.	1G	con-	1g	con-	2r	.	1dd	Con-
.	.	.	.	.	.	.	.	.	.	.	.	2dd\	con-	.	.
=36-	=36-	=36-	=36-	=36-	=36-	=36-	=36-	=36-	=36-	=36-	=36-	=36-	=36-	=36-	=36-
.	.	.	.	.	.	.	.	1c	-ſur-	1g	-ſur-	4g/	-ſur-	1ee-X	-ſur-
.	.	.	.	.	.	.	.	.	.	.	.	4a\	.	.	.
.	.	.	.	.	.	.	.	.	.	.	.	4b-\	.	.	.
.	.	.	.	.	.	.	.	.	.	.	.	4cc\	.	.	.
=37-	=37-	=37-	=37-	=37-	=37-	=37-	=37-	=37-	=37-	=37-	=37-	=37-	=37-	=37-	=37-
2r	.	2r	.	2r	.	2r	.	1G	-gens	1g	-gens.	1dd	-gens.	1dd	-gens
2G/	con-	2g\	con-	2dd\	con-	2dd\	con-	.	.	.	.	.	.	.	.
=38-	=38-	=38-	=38-	=38-	=38-	=38-	=38-	=38-	=38-	=38-	=38-	=38-	=38-	=38-	=38-
1c	-ſur-	1g	-ſur-	4g/	-ſur-	1ee-X	-ſur-	1r	.	1r	.	1r	.	1r	.
.	.	.	.	4a\	.	.	.	.	.	.	.	.	.	.	.
.	.	.	.	4b-y\	.	.	.	.	.	.	.	.	.	.	.
.	.	.	.	4cc\	.	.	.	.	.	.	.	.	.	.	.
=39-	=39-	=39-	=39-	=39-	=39-	=39-	=39-	=39-	=39-	=39-	=39-	=39-	=39-	=39-	=39-
*	*	*	*	*custos:dd	*	*	*	*	*	*	*	*	*	*	*
2G/	-gens	2g\	-gens	2dd\	-gens.	2dd\	-gens	2r	.	2r	.	2r	.	2r	.
*	*	*	*	*	*	*custos:f	*	*	*	*	*	*	*	*	*
!	!	!	!	!LO:PB:g=original	!	!	!	!	!	!	!	!	!	!LO:TX:b:t=P:problem=♯ below	!
2r	.	2r	.	2r	.	2r	.	2d\	con-	2a\	con-	2dd\	con-	2ff#X\	con-
!	!	!	!	!	!	!LO:LB:g=original	!	!	!	!	!	!	!	!	!
=40-	=40-	=40-	=40-	=40-	=40-	=40-	=40-	=40-	=40-	=40-	=40-	=40-	=40-	=40-	=40-
*	*	*custos:a	*	*	*	*	*	*	*	*	*	*	*	*	*
1r	.	1r	.	1r	.	1r	.	4G/	-ſur-	1b-	-ſur-	1dd	-ſur-	1gg	-ſur-
.	.	.	.	.	.	.	.	4A/	.	.	.	.	.	.	.
.	.	.	.	.	.	.	.	4B-/	.	.	.	.	.	.	.
.	.	.	.	.	.	.	.	4c/	.	.	.	.	.	.	.
!	!	!LO:PB:g=original	!	!	!	!	!	!	!	!	!	!	!	!	!
=41-	=41-	=41-	=41-	=41-	=41-	=41-	=41-	=41-	=41-	=41-	=41-	=41-	=41-	=41-	=41-
!	!	!	!	!	!	!	!	!	!	!	!	!	!	!LO:TX:b:t=P:problem=♯ below	!
2r	.	2r	.	2r	.	2r	.	2d\	-gens	2a\	-gens.	2dd\	-gens	2ff#X\	-gens
!	!	!	!	!	!	!LO:TX:b:t=P:problem=♯ below	!	!	!	!	!	!	!	!	!
2d\	con-	2a\	con-	2dd\	con-	2ff#X\	con-	2r	.	2r	.	2r	.	2r	.
=42-	=42-	=42-	=42-	=42-	=42-	=42-	=42-	=42-	=42-	=42-	=42-	=42-	=42-	=42-	=42-
4G/	-ſur-	1b-	-ſur-	1dd	-ſur-	1gg	-ſur-	1r	.	1r	.	1r	.	1r	.
4A/	.	.	.	.	.	.	.	.	.	.	.	.	.	.	.
4B-/	.	.	.	.	.	.	.	.	.	.	.	.	.	.	.
*custos:d	*	*	*	*	*	*	*	*	*	*	*	*	*	*	*
4c/	.	.	.	.	.	.	.	.	.	.	.	.	.	.	.
!LO:LB:g=original	!	!	!	!	!	!	!	!	!	!	!	!	!	!	!
=43-	=43-	=43-	=43-	=43-	=43-	=43-	=43-	=43-	=43-	=43-	=43-	=43-	=43-	=43-	=43-
!	!	!	!	!	!	!LO:TX:b:t=P:problem=♯ below	!	!	!	!	!	!	!	!	!
2d\	-gens	2a\	-gens	2dd\	-gens	2ff#X\	-gens	2r	.	2r	.	2r	.	2r	.
2r	.	2r	.	2r	.	2r	.	2B-/	con-	2fny\	con-	4b-\	con-	2dd\	con-
.	.	.	.	.	.	.	.	.	.	.	.	4cc\	.	.	.
=44-	=44-	=44-	=44-	=44-	=44-	=44-	=44-	=44-	=44-	=44-	=44-	=44-	=44-	=44-	=44-
00r	.	00r	.	00r	.	00r	.	2.G/	-ſur-	2.g\	-ſur-	2.dd\	-ſur-	4g/	-ſur-
.	.	.	.	.	.	.	.	.	.	.	.	.	.	4a/	.
.	.	.	.	.	.	.	.	.	.	.	.	.	.	4b-/	.
.	.	.	.	.	.	.	.	4A/	.	8f\L	.	4cc\	.	4cc\	.
.	.	.	.	.	.	.	.	.	.	8eny\J	.	.	.	.	.
=45-	=45-	=45-	=45-	=45-	=45-	=45-	=45-	=45-	=45-	=45-	=45-	=45-	=45-	=45-	=45-
.	.	.	.	.	.	.	.	4B-/	.	1f	.	4dd\	.	4dd\	.
.	.	.	.	.	.	.	.	4c/	.	.	.	4cc\	.	4eeny\	.
.	.	.	.	.	.	.	.	4d\	.	.	.	4b-\	.	4ffny\	.
*	*	*	*	*	*	*	*	*	*	*	*	*custos:dd	*	*	*
.	.	.	.	.	.	.	.	4B-/	.	.	.	4cc\	.	4dd\	.
!	!	!	!	!	!	!	!	!	!	!	!	!LO:LB:g=original	!	!	!
=46-	=46-	=46-	=46-	=46-	=46-	=46-	=46-	=46-	=46-	=46-	=46-	=46-	=46-	=46-	=46-
.	.	.	.	.	.	.	.	4c/	.	2.g\	gens	4dd\	.	4ee\	.
.	.	.	.	.	.	.	.	4d\	.	.	.	4b-\	.	4ff\	.
.	.	.	.	.	.	.	.	4e-X\	.	.	.	2ee-X\	.	4gg\	.
.	.	.	.	.	.	.	.	4c/	.	8cc\L	con-	.	.	4ee\	.
.	.	.	.	.	.	.	.	.	.	8b-\J	.	.	.	.	.
=47-	=47-	=47-	=47-	=47-	=47-	=47-	=47-	=47-	=47-	=47-	=47-	=47-	=47-	=47-	=47-
!	!	!	!	!	!	!	!	!	!	!	!	!	!	!LO:TX:a:t=P:problem=♯ above	!
.	.	.	.	.	.	.	.	4d\	.	4a\	.	4dd\	.	4ff#X\	.
.	.	.	.	.	.	.	.	4e-X\	.	4g\	.	4cc\	.	2gg\	.
.	.	.	.	.	.	.	.	2d\	.	2a\	-ſur-	2dd\	.	.	.
!	!	!	!	!	!	!	!	!	!	!	!	!	!	!LO:TX:b:t=P:problem=♯ below	!
.	.	.	.	.	.	.	.	.	.	.	.	.	.	4ff#X\	.
=48-	=48-	=48-	=48-	=48-	=48-	=48-	=48-	=48-	=48-	=48-	=48-	=48-	=48-	=48-	=48-
*	*	*	*	*	*	*	*	*	*	*custos:f	*	*	*	*	*
*	*	*	*	*	*	*	*	*custos:B-	*	*	*	*	*	*custos:dd	*
!	!	!	!	!	!	!	!	!	!	!LO:N:acc=#	!	!	!	!	!
!	!	!	!	!	!	!	!	!	!	!LO:TX:b:t=P:problem=♯ below	!	!	!	!	!
2r	.	2r	.	2r	.	2r	.	1G	-gens.	1bn	-gens.	1dd	-gens.	1gg	-gens.
2B-/	pul-	2fny\	pul-	2b-\	pul-	2dd\	pul-	.	.	.	.	.	.	.	.
!	!	!	!	!	!	!	!	!LO:LB:g=original	!	!LO:LB:g=original	!	!	!	!LO:PB:g=original	!
=49-	=49-	=49-	=49-	=49-	=49-	=49-	=49-	=49-	=49-	=49-	=49-	=49-	=49-	=49-	=49-
2f\	-chra	1f	-chra	2a\	-chra	2cc\	-chra	0r	.	0r	.	0r	.	0r	.
2f\	vt	.	.	2a\	vt	2a/	vt	.	.	.	.	.	.	.	.
=50-	=50-	=50-	=50-	=50-	=50-	=50-	=50-	=50-	=50-	=50-	=50-	=50-	=50-	=50-	=50-
1g	lu-	2b-\	vt	1g	lu-	1b-	lu-	.	.	.	.	.	.	.	.
.	.	2g\	lu-	.	.	.	.	.	.	.	.	.	.	.	.
=51-	=51-	=51-	=51-	=51-	=51-	=51-	=51-	=51-	=51-	=51-	=51-	=51-	=51-	=51-	=51-
!	!	!LO:TX:b:t=P:problem=♯ below	!	!	!	!	!	!	!	!	!	!	!	!	!
2d\	-na	2f#X\	-na	2a\	-na	2a/	-na	2r	.	2r	.	2r	.	2r	.
2r	.	2r	.	2r	.	2r	.	2B-/	pul-	2f\	pul-	2b-\	pul-	2dd\	pul-
=52-	=52-	=52-	=52-	=52-	=52-	=52-	=52-	=52-	=52-	=52-	=52-	=52-	=52-	=52-	=52-
0r	.	0r	.	0r	.	0r	.	2F/	-chra	2f\	-chra	2a\	-chra	2cc\	-chra
.	.	.	.	.	.	.	.	2F/	vt	2c/	vt	2a\	vt	2a/	vt
=53-	=53-	=53-	=53-	=53-	=53-	=53-	=53-	=53-	=53-	=53-	=53-	=53-	=53-	=53-	=53-
.	.	.	.	.	.	.	.	4G/	lu-	1g	lu-	1g	lu-	1b-	lu-
.	.	.	.	.	.	.	.	4A/	.	.	.	.	.	.	.
.	.	.	.	.	.	.	.	4B-/	.	.	.	.	.	.	.
.	.	.	.	.	.	.	.	4c/	.	.	.	.	.	.	.
=54-	=54-	=54-	=54-	=54-	=54-	=54-	=54-	=54-	=54-	=54-	=54-	=54-	=54-	=54-	=54-
2r	.	2r	.	2r	.	2r	.	2d\	-na	2f\	-na.	2a\	-na	2a/	-na
2B-/	pul-	2b-\	pul-	2dd\	pul-	2ffny\	pul-	2r	.	2r	.	2r	.	2r	.
=55-	=55-	=55-	=55-	=55-	=55-	=55-	=55-	=55-	=55-	=55-	=55-	=55-	=55-	=55-	=55-
2c/	-chra	2g\	-chra	2cc\	-chra	2eeny\	-chra	0r	.	0r	.	0r	.	0r	.
2f\	vt	2fny\	vt	2a\	vt	2cc\	vt	.	.	.	.	.	.	.	.
=56-	=56-	=56-	=56-	=56-	=56-	=56-	=56-	=56-	=56-	=56-	=56-	=56-	=56-	=56-	=56-
4B-/	lu-	1f	lu-	1b-	lu-	1dd	lu-	.	.	.	.	.	.	.	.
4c/	.	.	.	.	.	.	.	.	.	.	.	.	.	.	.
4d\	.	.	.	.	.	.	.	.	.	.	.	.	.	.	.
4e\	.	.	.	.	.	.	.	.	.	.	.	.	.	.	.
=57-	=57-	=57-	=57-	=57-	=57-	=57-	=57-	=57-	=57-	=57-	=57-	=57-	=57-	=57-	=57-
2f\	-na	2f\	-na	2a\	-na	2cc\	-na	2r	.	2r	.	2r	.	2r	.
2r	.	2r	.	2r	.	2r	.	2B-/	pul-	2b-y\	pul-	2dd\	pul-	2ffny\	pul-
=58-	=58-	=58-	=58-	=58-	=58-	=58-	=58-	=58-	=58-	=58-	=58-	=58-	=58-	=58-	=58-
0r	.	0r	.	0r	.	0r	.	2c/	-chra	2g\	-chra	2cc\	-chra	2ee\	-chra
.	.	.	.	.	.	.	.	2f\	vt	2f\	vt	2a\	vt	2cc\	vt
=59-	=59-	=59-	=59-	=59-	=59-	=59-	=59-	=59-	=59-	=59-	=59-	=59-	=59-	=59-	=59-
.	.	.	.	.	.	.	.	4B-/	lu-	1f	lu-	1b-	lu-	1dd	lu-
.	.	.	.	.	.	.	.	4c/	.	.	.	.	.	.	.
.	.	.	.	.	.	.	.	4d\	.	.	.	.	.	.	.
.	.	.	.	.	.	.	.	4eny\	.	.	.	.	.	.	.
=60-	=60-	=60-	=60-	=60-	=60-	=60-	=60-	=60-	=60-	=60-	=60-	=60-	=60-	=60-	=60-
2r	.	2r	.	2r	.	2r	.	2f\	-na	2f\	-a	2a\	-na	2cc\	-na
2B-/	pul-	2f\	pul-	2b-\	pul-	2dd\	pul-	2r	.	2r	.	2r	.	2r	.
=61-	=61-	=61-	=61-	=61-	=61-	=61-	=61-	=61-	=61-	=61-	=61-	=61-	=61-	=61-	=61-
2f\	-chra	1f	-chra	2a\	-chra	2cc\	-chra	00r	.	0r	.	0r	.	00r	.
2f\	vt	.	.	2a\	vt	2a/	vt	.	.	.	.	.	.	.	.
=62-	=62-	=62-	=62-	=62-	=62-	=62-	=62-	=62-	=62-	=62-	=62-	=62-	=62-	=62-	=62-
*	*	*	*	*custos:a	*	*	*	*	*	*	*	*	*	*	*
1g	lu-	2b-\	vt	1g	lu-	1b-	lu-	.	.	.	.	.	.	.	.
.	.	2g\	lu-	.	.	.	.	.	.	.	.	.	.	.	.
!	!	!	!	!LO:LB:g=original	!	!	!	!	!	!	!	!	!	!	!
=63-	=63-	=63-	=63-	=63-	=63-	=63-	=63-	=63-	=63-	=63-	=63-	=63-	=63-	=63-	=63-
2d\	-na	2f\	-na	2a\	-na	2a/	-na	.	.	2r	.	2r	.	.	.
*	*	*custos:f	*	*	*	*	*	*	*	*	*	*	*	*	*
2r	.	2r	.	2r	.	2r	.	.	.	2b-\	pul-	2dd\	pul-	.	.
!	!	!LO:LB:g=original	!	!	!	!LO:LB:g=original	!	!	!	!	!	!	!	!	!
=64-	=64-	=64-	=64-	=64-	=64-	=64-	=64-	=64-	=64-	=64-	=64-	=64-	=64-	=64-	=64-
00r	.	00r	.	00r	.	00r	.	.	.	2a\	-chra	2cc\	-chra	.	.
.	.	.	.	.	.	.	.	.	.	2f\	vt	2a\	vt	.	.
=65-	=65-	=65-	=65-	=65-	=65-	=65-	=65-	=65-	=65-	=65-	=65-	=65-	=65-	=65-	=65-
*	*	*	*	*	*	*	*	*	*	*lig	*	*	*	*	*
.	.	.	.	.	.	.	.	2r	.	1g	lu-	1b-	lu-	0r	.
.	.	.	.	.	.	.	.	2g\	pul-	.	.	.	.	.	.
=66-	=66-	=66-	=66-	=66-	=66-	=66-	=66-	=66-	=66-	=66-	=66-	=66-	=66-	=66-	=66-
*	*	*	*	*	*	*	*	*	*	*	*	*custos:dd	*	*	*
.	.	.	.	.	.	.	.	2f\	-chra	1a	.	2a\	-na.	.	.
!	!	!	!	!	!	!	!	!	!	!	!	!LO:PB:g=original	!	!	!
.	.	.	.	.	.	.	.	2d\	vt	.	.	2dd\	vt	.	.
*	*	*	*	*	*	*	*	*	*	*Xlig	*	*	*	*	*
=67-	=67-	=67-	=67-	=67-	=67-	=67-	=67-	=67-	=67-	=67-	=67-	=67-	=67-	=67-	=67-
.	.	.	.	.	.	.	.	1e-X	lu-	2g,<\	-na	2.b-\	lu-	2r	.
.	.	.	.	.	.	.	.	.	.	2g\	pul-	.	.	2gg\	pul-
.	.	.	.	.	.	.	.	.	.	.	.	4cc\	.	.	.
=68-	=68-	=68-	=68-	=68-	=68-	=68-	=68-	=68-	=68-	=68-	=68-	=68-	=68-	=68-	=68-
*custos:c	*	*	*	*	*	*	*	*	*	*	*	*	*	*	*
0r	.	0r	.	0r	.	0r	.	2d\	-na	2a\	-chra	2dd\	-na	2ff\	-chra
.	.	.	.	.	.	.	.	2d\	vt	2d/	vt	2a\	vt	2dd\	vt
=69-	=69-	=69-	=69-	=69-	=69-	=69-	=69-	=69-	=69-	=69-	=69-	=69-	=69-	=69-	=69-
*	*	*	*	*	*	*	*	*	*	*	*	*	*	*custos:dd	*
.	.	.	.	.	.	.	.	1c	lu-	2g\	lū-	1cc	lu-	1ee-X	lu-
*	*	*	*	*	*	*	*	*	*	*custos:b-	*	*	*	*	*
.	.	.	.	.	.	.	.	.	.	2g\	-na.	.	.	.	.
!LO:PB:g=original	!	!	!	!	!	!	!	!	!	!LO:PB:g=original	!	!	!	!LO:LB:g=original	!
=70-	=70-	=70-	=70-	=70-	=70-	=70-	=70-	=70-	=70-	=70-	=70-	=70-	=70-	=70-	=70-
*	*	*	*	*	*	*	*	*custos:B-	*	*	*	*	*	*	*
1B-	e-	1f	e-	1b-	e-	1dd	e-	2B-/	-na	1b-	e-	2dd,<\	-na	2dd\	-na
!	!	!	!	!	!	!	!	!LO:PB:g=original	!	!	!	!	!	!	!
.	.	.	.	.	.	.	.	2B-/	e-	.	.	2dd\	e-	2ff\	e-
=71-	=71-	=71-	=71-	=71-	=71-	=71-	=71-	=71-	=71-	=71-	=71-	=71-	=71-	=71-	=71-
1B-	-le-	1f	-le-	1b-	-le-	1dd	-le-	1B-	-le-	1f	-le-	2.b-\	-le-	2.dd\	-le-
.	.	.	.	.	.	.	.	.	.	.	.	4cc\	.	4eeny\	.
=72-	=72-	=72-	=72-	=72-	=72-	=72-	=72-	=72-	=72-	=72-	=72-	=72-	=72-	=72-	=72-
2B-/	-cta	2f\	-cta	2b-\	-cta	2dd\	-cta	2B-/	-cta	2f\	-cta	2dd\	-cta	2ff\	-cta
2F/	Vt	2f\	vt	2a\	vt	2cc\	vt	2r	.	2r	.	2r	.	2r	.
=73-	=73-	=73-	=73-	=73-	=73-	=73-	=73-	=73-	=73-	=73-	=73-	=73-	=73-	=73-	=73-
2B-/	sol	2f\	sol	2b-\	sol	2dd\	sol	2r	.	2r	.	2r	.	2r	.
!	!	!	!	!	!	!	!	!	!	!	!	!	!	!LO:TX:b:t=P:problem=♯ below	!
2r	.	2r	.	2r	.	2r	.	2d\	e-	1a\	e-	2dd\	e-	2ff#X\	e-
=74-	=74-	=74-	=74-	=74-	=74-	=74-	=74-	=74-	=74-	=74-	=74-	=74-	=74-	=74-	=74-
1r	.	1r	.	1r	.	1r	.	1e-X	-le-	.	.	2.b-\	-le-	1gg	-le-
.	.	.	.	.	.	.	.	.	.	2g\	-le-	.	.	.	.
.	.	.	.	.	.	.	.	.	.	.	.	4cc\	.	.	.
=75-	=75-	=75-	=75-	=75-	=75-	=75-	=75-	=75-	=75-	=75-	=75-	=75-	=75-	=75-	=75-
!	!	!	!	!	!	!	!	!	!	!	!	!	!	!LO:TX:b:t=P:problem=♯ below	!
2r	.	2r	.	2r	.	2r	.	2d\	-cta	2a\	-cta	2dd\	-cta	2ff#X\	-cta
2F/	Vt	2f\	Vt	2a\	Vt	2cc\	vt	2r	.	2r	.	2r	.	2r	.
=76-	=76-	=76-	=76-	=76-	=76-	=76-	=76-	=76-	=76-	=76-	=76-	=76-	=76-	=76-	=76-
2B-,</	sol	2f\	sol	2b-\	sol	2dd\	sol	1r	.	1r	.	1r	.	1r	.
2B-/	ter-	2f\	ter-	2b-\	ter-	2dd\	ter-	.	.	.	.	.	.	.	.
=77-	=77-	=77-	=77-	=77-	=77-	=77-	=77-	=77-	=77-	=77-	=77-	=77-	=77-	=77-	=77-
4.f\	-ri-	4.a\	-ri-	4.cc\	-ri-	4.ff\	-ri-	2r	.	2r	.	2r	.	2r	.
8f\	-bi-	8a\	-bi-	8cc\	-bi-	8ff\	-bi-	.	.	.	.	.	.	.	.
2f\	-lis	2a\	-lis	2cc\	-lis	2ff\	-lis	4r	.	4r	.	4r	.	4r	.
.	.	.	.	.	.	.	.	4f\	ter-	4a\	ter-	4a\	ter-	4ffny\	ter-
=78-	=78-	=78-	=78-	=78-	=78-	=78-	=78-	=78-	=78-	=78-	=78-	=78-	=78-	=78-	=78-
2r	.	2r	.	2r	.	2r	.	4.c/	-ri-	4.g\	-ri-	4.cc\	-ri-	4.gg\	-ri-
.	.	.	.	.	.	.	.	8c/	-bi-	8g\	-bi-	8cc\	-bi-	8gg\	-bi-
*	*	*	*	*	*	*	*	*	*	*	*	*custos:dd	*	*	*
4r	.	4r	.	4r	.	4r	.	2c/	-lis	2g\	-lis	2cc\	-lis	2gg\	-lis
4c/	ter-	4g\	ter-	4cc\	ter-	4gg\	ter-	.	.	.	.	.	.	.	.
!	!	!	!	!	!	!	!	!	!	!	!	!LO:LB:g=original	!	!	!
=79-	=79-	=79-	=79-	=79-	=79-	=79-	=79-	=79-	=79-	=79-	=79-	=79-	=79-	=79-	=79-
4.c/	-ri-	4.g\	-ri-	4.cc\	-ri-	4.ee\	-ri-	2r	.	2r	.	2r	.	2r	.
8c/	-bi-	8g\	-bi-	8cc\	-bi-	8ee\	-bi-	.	.	.	.	.	.	.	.
!	!	!	!	!LO:N:acc=#	!	!	!	!	!	!	!	!	!	!	!
!	!	!	!	!LO:TX:b:t=P:problem=♯ below	!	!	!	!	!	!	!	!	!	!	!
2G/	-lis	2g\	-lis	2bn\	-lis	2dd\	-lis	4r	.	4r	.	4r	.	4r	.
.	.	.	.	.	.	.	.	4G/	ter-	4g\	ter-	4dd\	ter-	4gg\	ter-
=80-	=80-	=80-	=80-	=80-	=80-	=80-	=80-	=80-	=80-	=80-	=80-	=80-	=80-	=80-	=80-
2r	.	2r	.	2r	.	2r	.	4.c/	-ri-	4.g\	-ri-	4.cc\	-ri-	4.ee\	-ri-
.	.	.	.	.	.	.	.	8c/	-bi-	8g\	-bi-	8cc\	-bi-	8ee\	-bi-
4r	.	4r	.	4r	.	4r	.	2c/	-lis	2g\	-lis	2cc\	-lis	2ee\	-lis
4c/	ter-	4g\	ter-	4cc\	ter-	4ee\	ter-	.	.	.	.	.	.	.	.
=81-	=81-	=81-	=81-	=81-	=81-	=81-	=81-	=81-	=81-	=81-	=81-	=81-	=81-	=81-	=81-
4.F/	-ri-	4.a\	-ri-	4.cc\	-ri-	4.ff\	-ri-	2r	.	2r	.	2r	.	2r	.
*	*	*	*	*custos:cc	*	*	*	*	*	*	*	*	*	*	*
8F/	-bi-	8a\	-bi-	8cc\	-bi-	8ff\	-bi-	.	.	.	.	.	.	.	.
*custos:F	*	*custos:a	*	*	*	*custos:ff	*	*	*	*	*	*	*	*	*
!	!	!	!	!LO:LB:g=original	!	!	!	!	!	!	!	!	!	!	!
2F/	-lis	2a\	-lis	2cc\	-lis	2ff\	-lis	4r	.	4r	.	4r	.	4r	.
*	*	*	*	*	*	*	*	*	*	*	*	*	*	*custos:ff	*
.	.	.	.	.	.	.	.	4c/	ter-	4g\	ter-	4cc\	ter-	4ee\	ter-
!LO:LB:g=original	!	!LO:LB:g=original	!	!	!	!LO:LB:g=original	!	!	!	!	!	!	!	!LO:LB:g=original	!
=82-	=82-	=82-	=82-	=82-	=82-	=82-	=82-	=82-	=82-	=82-	=82-	=82-	=82-	=82-	=82-
2r	.	2r	.	2r	.	2r	.	4.f\	-ri-	4.a\	-ri-	4.cc\	-ri-	4.ff\	-ri-
*	*	*	*	*	*	*	*	*custos:f	*	*	*	*	*	*	*
.	.	.	.	.	.	.	.	8f\	-bi-	8a\	-bi-	8cc\	-bi-	8ff\	-bi-
!	!	!	!	!	!	!	!	!LO:LB:g=original	!	!	!	!	!	!	!
4r	.	4r	.	4r	.	4r	.	2f\	-lis	2a\	-lis	2cc\	-lis	2ff\	-lis
4F/	ter-	4a\	ter-	4cc\	ter-	4ff\	ter-	.	.	.	.	.	.	.	.
=83-	=83-	=83-	=83-	=83-	=83-	=83-	=83-	=83-	=83-	=83-	=83-	=83-	=83-	=83-	=83-
*	*	*	*	*	*	*	*	*	*	*custos:f	*	*	*	*	*
4.c/	-ri-	4.g\	-ri-	4.cc\	-ri-	4.ee-X\	-ri-	1r	.	1r	.	1r	.	1r	.
8c/	-bi-	8g\	-bi-	8cc\	-bi-	8ee-\	-bi-	.	.	.	.	.	.	.	.
!	!	!	!	!LO:N:acc=#	!	!	!	!	!	!	!	!	!	!	!
!	!	!	!	!LO:TX:b:t=P:problem=♯ below	!	!	!	!	!	!	!	!	!	!	!
2G/	-lis	2g\	-lis	2bn\	-lis	2dd\	-lis	.	.	.	.	.	.	.	.
!	!	!	!	!	!	!	!	!	!	!LO:LB:g=original	!	!	!	!	!
=84-	=84-	=84-	=84-	=84-	=84-	=84-	=84-	=84-	=84-	=84-	=84-	=84-	=84-	=84-	=84-
*M3/2	*	*M3/2	*	*M3/2	*	*M3/2	*	*M3/2	*	*M3/2	*	*M3/2	*	*M3/2	*
0.r	.	0.r	.	0.r	.	0.r	.	0.r	.	0.r	.	0.r	.	1dd	Vt
.	.	.	.	.	.	.	.	.	.	.	.	.	.	2cc\	ca-
=85-	=85-	=85-	=85-	=85-	=85-	=85-	=85-	=85-	=85-	=85-	=85-	=85-	=85-	=85-	=85-
.	.	.	.	.	.	.	.	.	.	.	.	.	.	1b-	-stro-
.	.	.	.	.	.	.	.	.	.	.	.	.	.	2a/	-rum
=86-	=86-	=86-	=86-	=86-	=86-	=86-	=86-	=86-	=86-	=86-	=86-	=86-	=86-	=86-	=86-
1B-	Vt	2.d/	Vt	1b-y	Vt	1ff	Vt	4B-/	Vt	1f	Vt	1dd	Vt	0.r	.
.	.	.	.	.	.	.	.	4c/	.	.	.	.	.	.	.
.	.	.	.	.	.	.	.	4d\	.	.	.	.	.	.	.
.	.	4eny/	.	.	.	.	.	4eny\	.	.	.	.	.	.	.
2F/	ca-	2f\	ca-	2cc\	ca-	2ff\	ca-	2f\	ca-	2f\	ca-	2cc\	ca-	.	.
=87-	=87-	=87-	=87-	=87-	=87-	=87-	=87-	=87-	=87-	=87-	=87-	=87-	=87-	=87-	=87-
4B-/	-ſtro-	1f	-stro-	1dd	-stro-	2.dd\	-stro-	1B-	-stro-	1f	-stro-	1b-	-stro-	.	.
4c/	.	.	.	.	.	.	.	.	.	.	.	.	.	.	.
4d\	.	.	.	.	.	.	.	.	.	.	.	.	.	.	.
4e\	.	.	.	.	.	4eeny\	.	.	.	.	.	.	.	.	.
2f\	-rum	2f\	-rum	2cc\	-rum	2ff\	-rum	2F/	-rum	2f\	-rum	2a\	-rum	.	.
=88-	=88-	=88-	=88-	=88-	=88-	=88-	=88-	=88-	=88-	=88-	=88-	=88-	=88-	=88-	=88-
0.r	.	0.r	.	0.r	.	0.r	.	0.r	.	0.r	.	0.r	.	1ff	Vt
.	.	.	.	.	.	.	.	.	.	.	.	.	.	2ee\	ca-
=89-	=89-	=89-	=89-	=89-	=89-	=89-	=89-	=89-	=89-	=89-	=89-	=89-	=89-	=89-	=89-
.	.	.	.	.	.	.	.	.	.	.	.	.	.	1dd	-stro-
.	.	.	.	.	.	.	.	.	.	.	.	.	.	2cc\	-rum
=90-	=90-	=90-	=90-	=90-	=90-	=90-	=90-	=90-	=90-	=90-	=90-	=90-	=90-	=90-	=90-
1F	Vt	1f	Vt	1cc	Vt	1ff	Vt	1f	Vt	1a	Vt	2.cc\	Vt	0.r	.
.	.	.	.	.	.	.	.	.	.	.	.	4dd\	.	.	.
2c/	ca-	2g\	ca-	2cc\	ca-	2ee\	ca-	2c/	ca-	2g\	ca-	2eeny\	ca-	.	.
=91-	=91-	=91-	=91-	=91-	=91-	=91-	=91-	=91-	=91-	=91-	=91-	=91-	=91-	=91-	=91-
1f	-stro-	1d	-str-	1a	-stro-	1dd	-stro-	1d	-stro-	2.f\	-stro-	1ff	-stro-	.	.
.	.	.	.	.	.	.	.	.	.	4g\	.	.	.	.	.
2c/	-rum	2e/	-rum	2a\	-rum	2cc\	-rum	2A/	-rum	2a,<\	-rum	2ee\	-rum	.	.
=92-	=92-	=92-	=92-	=92-	=92-	=92-	=92-	=92-	=92-	=92-	=92-	=92-	=92-	=92-	=92-
*	*	*	*	*	*	*	*	*	*	*	*	*custos:cc	*	*	*
1.r	.	1.r	.	1.r	.	1.r	.	1d	Vt	1a	Vt	1dd	Vt	1ff	Vt
!	!	!	!	!	!	!	!	!	!	!	!	!LO:LB:g=original	!	!	!
.	.	.	.	.	.	.	.	2A/	ca-	2a\	ca-	2cc\	ca-	2ee\	ca-
=93-	=93-	=93-	=93-	=93-	=93-	=93-	=93-	=93-	=93-	=93-	=93-	=93-	=93-	=93-	=93-
2r	.	2r	.	2r	.	2r	.	1B-	-ſtro-	1f	-stro-	1b-	-stro-	1dd	-stro-
2B-/	Vt	2f\	Vt	2dd\	Vt	2ff\	Vt	.	.	.	.	.	.	.	.
2f\	ca-	2f\	ca-	2cc\	ca-	2ff\	ca-	2F/	-rum	2f,<\	-rum	2a\	-rum	2cc\	-rum
=94-	=94-	=94-	=94-	=94-	=94-	=94-	=94-	=94-	=94-	=94-	=94-	=94-	=94-	=94-	=94-
1B-	-stro-	1f	-stro-	1b-	-stro-	2.dd\	-stro-	4B-/	Vt	2.f\	Vt	1b-	Vt	1ff	Vt
.	.	.	.	.	.	.	.	4c/	.	.	.	.	.	.	.
.	.	.	.	.	.	.	.	4d\	.	.	.	.	.	.	.
.	.	.	.	.	.	4ee\	.	4e\	.	4g\	.	.	.	.	.
*	*	*custos:f	*	*	*	*custos:ff	*	*custos:B-	*	*	*	*	*	*custos:dd	*
2F/	-ru(m)	2f\	-rum	2a\	-rum	2ff\	-rum	2f\	ca-	2a\	ca-	2cc\	ca-	2ff\	ca-
!	!	!LO:LB:g=original	!	!	!	!LO:LB:g=original	!	!LO:LB:g=original	!	!	!	!	!	!LO:LB:g=original	!
=95-	=95-	=95-	=95-	=95-	=95-	=95-	=95-	=95-	=95-	=95-	=95-	=95-	=95-	=95-	=95-
*	*	*	*	*custos:cc	*	*	*	*	*	*	*	*	*	*	*
4B-/	Vt	1f	Vt	1dd	Vt	1ff	Vt	1B-	-ſtro-	1b-	-stro-	1dd	-stro-	2.dd\	-stro-
4c/	.	.	.	.	.	.	.	.	.	.	.	.	.	.	.
4d\	.	.	.	.	.	.	.	.	.	.	.	.	.	.	.
*custos:f	*	*	*	*	*	*	*	*	*	*	*	*	*	*	*
4e\	.	.	.	.	.	.	.	.	.	.	.	.	.	4ee\	.
!LO:LB:g=original	!	!	!	!LO:LB:g=original	!	!	!	!	!	!	!	!	!	!	!
2f\	ca-	2g\	ca-	2cc\	ca-	2ff\	ca-	2F/	-rum	2a\	-rum	2cc\	-rum	2ff\	-rum
=96-	=96-	=96-	=96-	=96-	=96-	=96-	=96-	=96-	=96-	=96-	=96-	=96-	=96-	=96-	=96-
1B-	-stro-	1f	-stro-	1b-	-stro-	1dd	-stro-	1.r	.	1.r	.	1.r	.	1.r	.
2F/	-rum	2f\	-rum	2a\	-rum	2cc\	-rum	.	.	.	.	.	.	.	.
=97-	=97-	=97-	=97-	=97-	=97-	=97-	=97-	=97-	=97-	=97-	=97-	=97-	=97-	=97-	=97-
*M2/2	*	*M2/2	*	*M2/2	*	*M2/2	*	*M2/2	*	*M2/2	*	*M2/2	*	*M2/2	*
*met(C|)	*	*met(C|)	*	*met(C|)	*	*met(C|)	*	*met(C|)	*	*met(C|)	*	*met(C|)	*	*met(C|)	*
4.B-/	a-	4.d/	a-	4.dd\	a-	4.dd\	a-	4.B-/	a-	4.f\	a-	4.b-\	a-	4.ff\	a-
8B-/	-ci-	8d/	-ci-	8dd\	-ci-	8dd\	-ci-	8B-/	-ci-	8f\	-ci-	8b-\	-ci-	8ff\	-ci-
*	*	*	*	*	*	*	*	*	*	*custos:g	*	*	*	*	*
2B-/	-es	2d/	-es	2b-\	-es	2dd\	-es	2B-/	-es	2b-\	-es	2b-\	-es	2ff\	-es
!	!	!	!	!	!	!	!	!	!	!LO:LB:g=original	!	!	!	!	!
=98-	=98-	=98-	=98-	=98-	=98-	=98-	=98-	=98-	=98-	=98-	=98-	=98-	=98-	=98-	=98-
4E-X/	or-	4g\	or-	4b-\	or-	4ee-X\	or-	4e-X\	or-	4.b-\	or-	4b-\	or-	4gg\	or-
4B-/	-di-	4d/	-di-	4f/	-di-	4dd\	-di-	4B-/	-di-	.	.	4b-\	-di-	4ff\	-di-
.	.	.	.	.	.	.	.	.	.	8f\	-di-	.	.	.	.
2f\	-na-	2f\	-na-	2.f/	-na-	2cc\	-na-	2F/	-na-	2f\	-na-	2cc\	-na-	2ff\	-na-
=99-	=99-	=99-	=99-	=99-	=99-	=99-	=99-	=99-	=99-	=99-	=99-	=99-	=99-	=99-	=99-
2B-/	-ta	2f\	-ta	.	.	2dd\	-ta	2B-/	-ta	2f\	-ta	2b-\	-ta	2ff,<\	-ta
.	.	.	.	4b-,<\	-ta	.	.	.	.	.	.	.	.	.	.
4.g\	a-	4.g\	a-	4.b-\	a-	4.dd\	a-	4.G/	a-	4.d/	a-	4.dd\	a-	4.gg\	a-
8g\	-ci-	8d/	-ci-	8b-\	-ci-	8dd\	-ci-	8G/	-ci-	8d/	-ci-	8dd\	-ci-	8gg\	-ci-
=100-	=100-	=100-	=100-	=100-	=100-	=100-	=100-	=100-	=100-	=100-	=100-	=100-	=100-	=100-	=100-
1g	-es	2d/	-es	2dd\	-es	1dd	-es	1G	-es	1g	-es	4b-\	-es	2gg\	-es
.	.	.	.	.	.	.	.	.	.	.	.	4cc\	.	.	.
.	.	2g\	.	2g/	or-	.	.	.	.	.	.	4dd\	or-	8dd\L	or-
.	.	.	.	.	.	.	.	.	.	.	.	.	.	8ee\	.
.	.	.	.	.	.	.	.	.	.	.	.	4b-\	.	8ff\	.
.	.	.	.	.	.	.	.	.	.	.	.	.	.	8dd\J	.
=101-	=101-	=101-	=101-	=101-	=101-	=101-	=101-	=101-	=101-	=101-	=101-	=101-	=101-	=101-	=101-
4c/	or-	1.g	or-	2g/	-di-	1cc	or-	1c	or-	1.g	or-	1cc	.	4ee\	.
4d\	.	.	.	.	.	.	.	.	.	.	.	.	.	4ff\	.
4e\	.	.	.	2cc\	-na-	.	.	.	.	.	.	.	.	1gg\	-di-
4f\	.	.	.	.	.	.	.	.	.	.	.	.	.	.	.
=102-	=102-	=102-	=102-	=102-	=102-	=102-	=102-	=102-	=102-	=102-	=102-	=102-	=102-	=102-	=102-
2.g\	-di-	.	.	2b-,<\	-ta	1dd	-di-	4G/	-di-	.	.	1b-	-di-	.	.
.	.	.	.	.	.	.	.	4A/	.	.	.	.	.	.	.
.	.	2d/	-di-	2dd\	or-	.	.	4B-/	.	2g\	-di-	.	.	4ff\	.
8f\L	.	.	.	.	.	.	.	4c/	.	.	.	.	.	4ee\	.
8e\J	.	.	.	.	.	.	.	.	.	.	.	.	.	.	.
=103-	=103-	=103-	=103-	=103-	=103-	=103-	=103-	=103-	=103-	=103-	=103-	=103-	=103-	=103-	=103-
!	!	!	!	!	!	!	!	!	!	!	!	!	!	!LO:TX:b:t=P:problem=♯ below	!
1d	-na-	1d	-na-	2dd\	-di-	1dd	-na-	1d	-na-	1a	-na-	1a	-na-	1ff#X	-na-
.	.	.	.	2a\	-na-	.	.	.	.	.	.	.	.	.	.
=104-	=104-	=104-	=104-	=104-	=104-	=104-	=104-	=104-	=104-	=104-	=104-	=104-	=104-	=104-	=104-
!	!	!	!	!	!	!	!	!	!	!	!	!LO:TX:b:t=P:problem=♯ below	!	!	!
!	!	!	!	!LO:N:acc=#	!	!	!	!	!	!	!	!LO:N:acc=#	!	!	!
1gl;;	-ta	1dl;	-ta	1bnl;;	-ta	1ddl;;	-ta	1Gl;;	-ta	1gl;;	-ta	1bnl;;	-ta.	1ggl;;	-ta.
==	==	==	==	==	==	==	==	==	==	==	==	==	==	==	==
*-	*-	*-	*-	*-	*-	*-	*-	*-	*-	*-	*-	*-	*-	*-	*-
!!!system-decoration: [(g1)][(g2)]
!!!RDF**kern: > = above
!!!RDF**kern: < = below
!!!RDF**kern: l = terminal long
!!!ENC: Andrzej Kubiczek
!!!END: 2021-10-05
!!!ENC: Andrzej Kubiczek
!!!END: 2021-10-16
!!!YEC: Copyright 2022 Narodowy Instytut Fryderyka Chopina (https://polishscores.org)
!!!YEM: License CC-BY-4.0 (https://creativecommons.org/licenses/by/4.0)
